X:1
T:Morning (Wesley), LM
T:Samuel Sebastian Wesley (1810-1876)
T:Morning (Wesley), LM
T:Public Domain
C:Samuel Sebastian Wesley (1810-1876)
Z:Public Domain
%%score ( 1 2 ) ( 3 4 )
L:1/8
M:3/4
K:G
V:1 treble 
V:2 treble 
V:3 bass 
V:4 bass 
V:1
 [DB]2 [DA]2 [DG]2 | (G2 F2) G2 | (G2 B2) [FA]2 | G6 | [Gd]2 [Fc]2 [GB]2 | ([GB]2 [FA]2) [DG]2 | %6
 [DF]2 [EG]2 [^CE]2 | D6 | D2 [DG]2 [DF]2 | [DF]4 [CE]2 | ([CA]2 [B,^G]2) [DB]2 | [CA]6 | %12
 [DA]2 [DB]2 [Dc]2 | (D2 F2) [Gd]2 | (d2 B2) [FA]2 x | G6 |] %16
V:2
 x6 | D4 G2 | G4 x2 | G6 | x6 | x6 | x6 | D6 | D2 x4 | x6 | x6 | x6 | x6 | d4 x2 | G4 x3 | G6 |] %16
V:3
 [G,D]2 [G,C]2 [G,B,]2 | ([D,B,]2 [C,A,]2) [B,,D]2 | ([C,C]2 [D,B,]2) [D,C]2 | [G,B,]6 | %4
 [B,D]2 [A,D]2 [G,D]2 | ([D,D]4 [B,,D]2) | [A,,A,]2 [G,,B,]2 [A,,G,]2 | [D,F,]6 | %8
 [D,F,]2 [B,,G,]2 [G,,G,]2 | [C,G,]4 [C,G,]2 | E,4 E,2 | [A,,E,]6 | [C,F,]2 [B,,G,]2 [A,,A,]2 | %13
 ([G,,B,]2 [A,,C]2) [B,,D]2 | ([C,C]2 D,2) z C x | [G,,B,]6 |] %16
V:4
 x6 | x6 | x6 | x6 | x6 | x6 | x6 | x6 | x6 | x6 | E,4 E,2 | x6 | x6 | x6 | x2 B,3 D,2 | x6 |] %16

